arcticons-dark/symbolic/apps/org.kde.discover-symbolic.svg

<?xml version="1.0" encoding="UTF-8" standalone="no"?>
<svg
   viewBox="0 0 48 48"
   version="1.1"
   id="svg2"
   sodipodi:docname="org.kde.discover.svg"
   xmlns:inkscape="http://www.inkscape.org/namespaces/inkscape"
   xmlns:sodipodi="http://sodipodi.sourceforge.net/DTD/sodipodi-0.dtd"
   xmlns="http://www.w3.org/2000/svg"
   xmlns:svg="http://www.w3.org/2000/svg">
  <sodipodi:namedview
     id="namedview2"
     pagecolor="#ffffff"
     bordercolor="#666666"
     borderopacity="1.0"
     inkscape:showpageshadow="2"
     inkscape:pageopacity="0.0"
     inkscape:pagecheckerboard="0"
     inkscape:deskcolor="#d1d1d1" />
  <defs
     id="defs1">
    <style
       id="style1">.a{fill:none;stroke:#fff;stroke-width:2px;stroke-linecap:round;stroke-linejoin:round;}</style>
  </defs>
  <path
     style="color:#000000;fill:#ffffff;stroke-linecap:round;stroke-linejoin:round;-inkscape-stroke:none"
     d="M 6.765625,15.095703 A 1.0001,1.0001 0 0 0 5.7714844,16.197266 L 7.71875,35.404297 c 0.4653915,4.588537 4.346906,8.095675 8.958984,8.095703 h 14.644532 c 4.612078,-2.8e-5 8.493593,-3.507166 8.958984,-8.095703 l 1.947266,-19.207031 a 1.0001,1.0001 0 0 0 -0.994141,-1.101563 z m 1.1074219,2 H 40.126953 l -1.835937,18.107422 c -0.363544,3.584362 -3.366,6.296853 -6.96875,6.296875 H 16.677734 c -3.60275,-2.2e-5 -6.605206,-2.712513 -6.9687496,-6.296875 z"
     id="path1" />
  <path
     style="color:#000000;fill:#ffffff;stroke-linecap:round;stroke-linejoin:round;-inkscape-stroke:none"
     d="m 24,4.5 c -4.919279,0 -8.927734,4.0084518 -8.927734,8.927734 v 2.667969 a 1,1 0 0 0 1,1 1,1 0 0 0 1,-1 V 13.427734 C 17.072266,9.5893302 20.161598,6.5 24,6.5 c 3.838402,0 6.927734,3.0893302 6.927734,6.927734 v 2.667969 a 1,1 0 0 0 1,1 1,1 0 0 0 1,-1 V 13.427734 C 32.927734,8.5084518 28.919279,4.5 24,4.5 Z"
     id="path2" />
</svg>

<?xml version="1.0" encoding="UTF-8"?>
<svg id="svg10" version="1.1" viewBox="0 0 48 48" xmlns="http://www.w3.org/2000/svg">
 <defs id="defs4">
  <style id="style2">.a{fill:none;stroke:#fff;stroke-width:2px;stroke-linecap:round;stroke-linejoin:round;}</style>
 </defs>
 <path id="path6" d="m6.7656 15.096a1.0001 1.0001 0 0 0-0.99414 1.1016l1.9473 19.207c0.46539 4.5885 4.3469 8.0957 8.959 8.0957h14.645c4.6121-2.8e-5 8.4936-3.5072 8.959-8.0957l1.9473-19.207a1.0001 1.0001 0 0 0-0.99414-1.1016zm1.1074 2h32.254l-1.8359 18.107c-0.36354 3.5844-3.366 6.2969-6.9688 6.2969h-14.645c-3.6028-2.2e-5 -6.6052-2.7125-6.9687-6.2969z" color="#000000" fill="#fff" stroke-linecap="round" stroke-linejoin="round" style="-inkscape-stroke:none"/>
 <path id="path8" d="m24 4.5c-4.9193 0-8.9277 4.0085-8.9277 8.9277v2.668a1 1 0 0 0 1 1 1 1 0 0 0 1-1v-2.668c0-3.8384 3.0893-6.9277 6.9277-6.9277s6.9277 3.0893 6.9277 6.9277v2.668a1 1 0 0 0 1 1 1 1 0 0 0 1-1v-2.668c0-4.9193-4.0085-8.9277-8.9277-8.9277z" color="#000000" fill="#fff" stroke-linecap="round" stroke-linejoin="round" style="-inkscape-stroke:none"/>
</svg>
